X: 518
T: Polska efter Hins Anders
O: Dalarna
R: Polska
S: efter Hins Anders
S: Känd genom Hedningarna
N: Hins Anders = Anders Ersson, Östnoret?
D: Hedningarna
Z: Håkan Lidén, 2008-09-27
R: Polska
M: 3/4
L: 1/8
K: D
(3D2 D2 F2 E>D | =C>D F<G A2- | AF G/F/G/A/ B>c | dc A4 :|
|: dc A/B/A/G/ E2 | F/E/F/G/ AG E2 | dc A/B/A/G/ E2 | F>A F/G/F/E/ D>=C | D2 D4 :|
(:musicend:)

(:music:)
